packages/icons/svg/Fill/corner-left-down.svg

<svg width="24" height="24" viewBox="0 0 24 24" fill="none" xmlns="http://www.w3.org/2000/svg">
<g id="Icon/Fill/corner-left-down">
<path id="Mask" fill-rule="evenodd" clip-rule="evenodd" d="M17.9999 5H12.9999C11.3459 5 9.99991 6.346 9.99991 8V16.919L6.62491 14.219C6.19391 13.875 5.56291 13.944 5.21891 14.375C4.87391 14.807 4.94391 15.436 5.37491 15.781L10.3749 19.781C10.5579 19.927 10.7789 20 10.9999 20C11.2209 20 11.4419 19.927 11.6249 19.781L16.6249 15.781C17.0559 15.436 17.1259 14.807 16.7809 14.375C16.4369 13.944 15.8069 13.874 15.3749 14.219L11.9999 16.919V8C11.9999 7.449 12.4489 7 12.9999 7H17.9999C18.5519 7 18.9999 6.552 18.9999 6C18.9999 5.448 18.5519 5 17.9999 5Z" fill="#000000"/>
</g>
</svg>

<svg fill="none" height="24" viewBox="0 0 24 24" width="24" xmlns="http://www.w3.org/2000/svg"><path clip-rule="evenodd" d="m18 5h-5c-1.654 0-3 1.346-3 3v8.919l-3.375-2.7c-.431-.344-1.062-.275-1.406.156-.345.432-.275 1.061.156 1.406l5 4c.183.146.404.219.625.219s.442-.073.625-.219l5-4c.431-.345.501-.974.156-1.406-.344-.431-.974-.501-1.406-.156l-3.375 2.7v-8.919c0-.551.449-1 1-1h5c.552 0 1-.448 1-1s-.448-1-1-1" fill="#6b7280" fill-rule="evenodd"/></svg>
